!!!!SEGMENT: Fsc2015-Vidi_speciosam.krn
!!!id: Fsc2015
!!!AGN: Motet
!!!SCT: Seay (1977)
!!!voices: 5
!!!COM: Costanzo Festa
!!!OTL: Vidi speciosam
**kern	**kern	**kern	**kern	**kern	**kern
*part6	*part5	*part4	*part3	*part2	*part1
*staff6	*staff5	*staff4	*staff3	*staff2	*staff1
*I"Bassus II	*I"Bassus I	*I"Tenor II	*I"Tenor I	*I"Altus	*I"Superius
*I'B. II	*I'B. I	*I'T. II	*I'T. I	*I'A	*I'S
*clefF4	*clefF4	*clefGv2	*clefGv2	*clefG2	*clefG2
*k[b-]	*k[b-]	*k[b-]	*k[b-]	*k[b-]	*k[b-]
*F:	*F:	*F:	*F:	*F:	*F:
*M2/1	*M2/1	*M2/1	*M2/1	*M2/1	*M2/1
*met(C|)	*met(C|)	*met(C|)	*met(C|)	*met(C|)	*met(C|)
!!section: Prima pars: Vidi speciosam
!!!OMD: Prima pars: Vidi speciosam
=1	=1	=1	=1	=1	=1
0r	0r	0r	0r	0r	1.f
.	.	.	.	.	2f
=2	=2	=2	=2	=2	=2
0r	0r	0r	0r	0r	1a
.	.	.	.	.	1f
=3	=3	=3	=3	=3	=3
0r	0r	0r	0r	1.c	1cc
.	.	.	.	.	1cc
.	.	.	.	2c	.
=4	=4	=4	=4	=4	=4
0r	0r	0r	0r	1e	1r
.	.	.	.	1c	1cc
=5	=5	=5	=5	=5	=5
0r	0r	0r	0r	1g	1.dd
.	.	.	.	1g	.
.	.	.	.	.	2b-y
=6	=6	=6	=6	=6	=6
0r	0r	0r	0r	1r	1ee-i
.	.	.	.	1g	1dd
=7	=7	=7	=7	=7	=7
0r	0r	0r	0r	1.a	2.cc
.	.	.	.	.	4b-y
.	.	.	.	.	2cc
.	.	.	.	2f	[2dd
=8	=8	=8	=8	=8	=8
0r	0r	0r	0r	1b-y	2dd]
.	.	.	.	.	4cc
.	.	.	.	.	4b-y
.	.	.	.	1a	2cc
.	.	.	.	.	2f
=9	=9	=9	=9	=9	=9
0r	0r	0r	0r	1g	2b-y
.	.	.	.	.	1g
.	.	.	.	2e	.
.	.	.	.	[2f	2a
=10	=10	=10	=10	=10	=10
0r	0r	0r	0r	4f]	2g
.	.	.	.	4e	.
.	.	.	.	4d	1cc
.	.	.	.	4c	.
.	.	.	.	1d	.
.	.	.	.	.	2bni
=11	=11	=11	=11	=11	=11
0r	0r	0r	0r	1c	0cc
.	.	.	.	2r	.
.	.	.	.	[2f	.
=12	=12	=12	=12	=12	=12
0r	0r	0r	0r	2f]	2r
.	.	.	.	2e	1cc
.	.	.	.	1d	.
.	.	.	.	.	2b-y
=13	=13	=13	=13	=13	=13
0r	0r	0r	0r	2f	2a
.	.	.	.	2e	1cc
.	.	.	.	2.c	.
.	.	.	.	.	[2g
.	.	.	.	4d	.
=14	=14	=14	=14	=14	=14
0r	0r	0r	0r	4e	4g]
.	.	.	.	4f	4a
.	.	.	.	2g	4b-y
.	.	.	.	.	4cc
.	.	.	.	2.G	2dd
.	.	.	.	.	[2d
.	.	.	.	4A	.
=15	=15	=15	=15	=15	=15
0r	0r	0r	0r	4B-y	4d]
.	.	.	.	4c	4e
.	.	.	.	4d	4f
.	.	.	.	4e	4g
.	.	.	.	2f	2a
.	.	.	.	[2g	[2b-y
=16	=16	=16	=16	=16	=16
0r	0r	0r	0c	4g]	4b-]
.	.	.	.	4f	4a
.	.	.	.	1f	4g
.	.	.	.	.	4f
.	.	.	.	.	1g
.	.	.	.	2e	.
=17	=17	=17	=17	=17	=17
0r	1.F	0r	0c	2.f	[0f
.	.	.	.	8eL	.
.	.	.	.	8dJ	.
.	.	.	.	4c	.
.	.	.	.	4B-y	.
.	2F	.	.	4A	.
.	.	.	.	4G	.
=18	=18	=18	=18	=18	=18
0r	1A	0r	0c	1F	0f]
.	1F	.	.	1r	.
=19	=19	=19	=19	=19	=19
1.C	1c	0r	0e	2r	1r
.	.	.	.	1G	.
.	1c	.	.	.	1cc
2C	.	.	.	[2A	.
=20	=20	=20	=20	=20	=20
1D	0r	1.F	[0f	2A]	1a
.	.	.	.	2F	.
1BB-y	.	.	.	1B-y	1dd
.	.	2F	.	.	.
=21	=21	=21	=21	=21	=21
1F	0r	1A	0f]	2A	1cc
.	.	.	.	4F	.
.	.	.	.	4G	.
1F	.	1F	.	4A	2a
.	.	.	.	4B-y	.
.	.	.	.	4c	[2cc
.	.	.	.	4d	.
=22	=22	=22	=22	=22	=22
0r	1.C	1c	[0g	2.e	2cc]
.	.	.	.	.	4b-y
.	.	.	.	4d	4a
.	.	1c	.	4e	1g
.	.	.	.	4f	.
.	2C	.	.	[2g	.
=23	=23	=23	=23	=23	=23
0r	1E	1r	0g_	4g]	0r
.	.	.	.	4f	.
.	.	.	.	2.e	.
.	1C	1c	.	.	.
.	.	.	.	4d	.
.	.	.	.	[2c	.
=24	=24	=24	=24	=24	=24
0r	1G	1.d	0g]	2c]	0r
.	.	.	.	4B-y	.
.	.	.	.	4A	.
.	1G	.	.	4B-y	.
.	.	.	.	4c	.
.	.	2B-y	.	4d	.
.	.	.	.	4e	.
=25	=25	=25	=25	=25	=25
1.F	0r	2.c	0a	1.f	2r
.	.	.	.	.	2cc
.	.	4B-y	.	.	.
.	.	4A	.	.	2dd
.	.	4G	.	.	.
2F	.	[2F	.	4e	[2cc
.	.	.	.	4d	.
=26	=26	=26	=26	=26	=26
1A	0r	4F]	0f	1.c	2cc]
.	.	4E	.	.	.
.	.	4F	.	.	2.a
.	.	4G	.	.	.
1F	.	1A	.	.	.
.	.	.	.	.	4b-y
.	.	.	.	[2f	[2cc
=27	=27	=27	=27	=27	=27
1c	1.C	[0G	0g	2f]	2cc]
.	.	.	.	4e	4b-y
.	.	.	.	4d	4a
1c	.	.	.	1e	1g
.	2C	.	.	.	.
=28	=28	=28	=28	=28	=28
0r	1E	0G]	0e	1r	2r
.	.	.	.	.	1g
.	1C	.	.	1g	.
.	.	.	.	.	[2cc
=29	=29	=29	=29	=29	=29
1r	1G	0r	0r	2g	2cc]
.	.	.	.	2g	4bni
.	.	.	.	.	4a
1G	1G	.	.	1g	1bni
=30	=30	=30	=30	=30	=30
1.A	0r	0r	0c	2e	1cc
.	.	.	.	2.cc	.
.	.	.	.	.	1r
.	.	.	.	4b-y	.
2F	.	.	.	[2a	.
=31	=31	=31	=31	=31	=31
1B-y	2r	0r	1d	2a]	0r
.	2G	.	.	2g	.
2.A	[1c	.	1e	[1a	.
8GL	.	.	.	.	.
8FJ	.	.	.	.	.
=32	=32	=32	=32	=32	=32
1F	2c]	0r	[0f	1a]	0r
.	2F	.	.	.	.
1r	1B-y	.	.	1r	.
=33	=33	=33	=33	=33	=33
1BB-y	1B-y	1r	0f]	0r	2r
.	.	.	.	.	2f
1D	1r	2r	.	.	1a
.	.	2F	.	.	.
=34	=34	=34	=34	=34	=34
1F	2r	1A	0f	1r	1cc
.	2F	.	.	.	.
1F	1A	1c	.	1F	1cc
=35	=35	=35	=35	=35	=35
1C	1c	1c	[0e	1A	1r
[1C	1c	1r	.	1c	2r
.	.	.	.	.	2c
=36	=36	=36	=36	=36	=36
1C]	2r	2c	0e_	2c	1e
.	2C	1e	.	2c	.
[1C	1E	.	.	1e	1g
.	.	[2g	.	.	.
=37	=37	=37	=37	=37	=37
1C]	1G	2g]	0e]	1g	1g
.	.	2g	.	.	.
[1C	2G	[1e	.	2g	2r
.	2c	.	.	2g	[2cc
=38	=38	=38	=38	=38	=38
1C]	2c	2e]	0r	2g	2cc]
.	2c	2e	.	2g	2cc
1C	2c	2e	.	2a	2cc
.	2G	2e	.	[2g	2cc
=39	=39	=39	=39	=39	=39
2BB-y	2B-y	2d	0r	4g]	2dd
.	.	.	.	4f	.
2D	2F	2d	.	1f	2b-y
1C	1G	1g	.	.	1cc
.	.	.	.	2e	.
=40	=40	=40	=40	=40	=40
1F	[0F	0a	0r	1f	2.cc
.	.	.	.	.	4b-y
1r	.	.	.	2r	4cc
.	.	.	.	.	4b-y
.	.	.	.	2c	4a
.	.	.	.	.	4g
=41	=41	=41	=41	=41	=41
2r	1F]	2r	[0f	2c	[0a
2F	.	2f	.	2c	.
2F	1r	2c	.	2A	.
2F	.	2c	.	2A	.
=42	=42	=42	=42	=42	=42
2D	0r	2.f	0f]	2d	0a]
2D	.	.	.	2d	.
.	.	4f	.	.	.
2F	.	2f	.	[1c	.
2F	.	2f	.	.	.
=43	=43	=43	=43	=43	=43
[0C	0r	2e	[0g	1c]	2r
.	.	2c	.	.	2cc
.	.	2c	.	1r	2g
.	.	2c	.	.	2g
=44	=44	=44	=44	=44	=44
0C]	0r	2.G	0g]	2r	2.cc
.	.	.	.	2c	.
.	.	4G	.	.	4cc
.	.	2c	.	2G	2cc
.	.	2c	.	2G	2cc
=45	=45	=45	=45	=45	=45
0r	2r	1F	[0a	2.c	2a
.	2F	.	.	.	2.f
.	.	.	.	4c	.
.	2F	2r	.	2c	.
.	.	.	.	.	4e
.	2F	[2f	.	2c	2c
=46	=46	=46	=46	=46	=46
0r	2D	2f]	0a]	1F	4d
.	.	.	.	.	4e
.	2D	4e	.	.	4f
.	.	4d	.	.	4g
.	2F	2c	.	1F	4a
.	.	.	.	.	4b-y
.	2F	2f	.	.	[2cc
=47	=47	=47	=47	=47	=47
2r	[0C	2.e	[0g	0G	2cc]
2c	.	.	.	.	4b-y
.	.	4d	.	.	4a
2c	.	4e	.	.	4g
.	.	4f	.	.	4f
2c	.	[2g	.	.	4e
.	.	.	.	.	4d
=48	=48	=48	=48	=48	=48
2G	0C]	4g]	0g]	0r	1e
.	.	4f	.	.	.
2G	.	4e	.	.	.
.	.	4d	.	.	.
2c	.	1e	.	.	1r
2c	.	.	.	.	.
=49	=49	=49	=49	=49	=49
1F	2r	1f	0f	2r	2r
.	1D	.	.	1A	1a
1r	.	1r	.	.	.
.	2D	.	.	2A	2a
=50	=50	=50	=50	=50	=50
0r	2G	0r	0d	2B-y	2g
.	2F	.	.	2A	2a
.	1G	.	.	1B-y	1g
=51	=51	=51	=51	=51	=51
0r	0C	0r	0e	0c	0g
=52	=52	=52	=52	=52	=52
2r	0r	2r	[0d	2r	0r
1D	.	1A	.	1f	.
2D	.	2A	.	2f	.
=53	=53	=53	=53	=53	=53
2G	0r	2B-y	0d]	2g	0r
2F	.	2A	.	2a	.
1G	.	1B-y	.	1g	.
=54	=54	=54	=54	=54	=54
0C	1G	1c	[0c	0e	0r
.	2G	1r	.	.	.
.	2G	.	.	.	.
=55	=55	=55	=55	=55	=55
0r	1A	0r	0c]	0r	0r
.	1F	.	.	.	.
=56	=56	=56	=56	=56	=56
0r	1G	1d	0B-y	0r	0r
.	1G	2d	.	.	.
.	.	2d	.	.	.
=57	=57	=57	=57	=57	=57
0r	2r	1e	0c	1g	0r
.	2.C	.	.	.	.
.	.	2c	.	2g	.
.	4D	.	.	.	.
.	4E	2g	.	2g	.
.	4C	.	.	.	.
=58	=58	=58	=58	=58	=58
0r	0F	2f	[0c	1a	0r
.	.	2.a	.	.	.
.	.	.	.	1f	.
.	.	4g	.	.	.
.	.	[2f	.	.	.
=59	=59	=59	=59	=59	=59
0r	0C	2f]	0c]	1g	0r
.	.	4e	.	.	.
.	.	4d	.	.	.
.	.	4e	.	1g	.
.	.	4d	.	.	.
.	.	4c	.	.	.
.	.	4B-y	.	.	.
=60	=60	=60	=60	=60	=60
0r	1F	1A	0r	0c	0r
.	2E	2r	.	.	.
.	[2F	[2A	.	.	.
=61	=61	=61	=61	=61	=61
0r	2F]	2A]	0r	1c	0r
.	4E	4G	.	.	.
.	4D	4F	.	.	.
.	2C	2G	.	1c	.
.	[2c	2A	.	.	.
=62	=62	=62	=62	=62	=62
0r	4c]	2.F	0r	2.A	0r
.	4B-y	.	.	.	.
.	4A	.	.	.	.
.	4G	4G	.	4B-y	.
.	4F	2A	.	2c	.
.	4E	.	.	.	.
.	2D	2B-y	.	2d	.
=63	=63	=63	=63	=63	=63
0r	2C	2c	0r	2e	0r
.	2D	2F	.	1d	.
.	2E	2G	.	.	.
.	2F	2A	.	2c	.
=64	=64	=64	=64	=64	=64
0r	4BB-y	1B-y	0r	1d	0r
.	4C	.	.	.	.
.	4D	.	.	.	.
.	4E	.	.	.	.
.	1F	1A	.	1c	.
=65	=65	=65	=65	=65	=65
0r	1B-y	1r	0r	2r	0r
.	.	.	.	2d	.
.	2B-y	1f	.	2d	.
.	2B-y	.	.	2d	.
=66	=66	=66	=66	=66	=66
0r	2B-y	2f	0r	2d	0r
.	2B-y	2f	.	2d	.
.	2A	2f	.	1c	.
.	4F	2f	.	.	.
.	4G	.	.	.	.
=67	=67	=67	=67	=67	=67
0r	4A	1e	0r	2r	0r
.	4B-y	.	.	.	.
.	2c	.	.	2A	.
.	[1G	1d	.	2B-y	.
.	.	.	.	2G	.
=68	=68	=68	=68	=68	=68
0r	1G]	2e	0r	1B-y	0r
.	.	2.d	.	.	.
.	2F	.	.	2A	.
.	.	4c	.	.	.
.	2E	[2c	.	[2G	.
=69	=69	=69	=69	=69	=69
1r	1D	2c]	0r	2G]	1r
.	.	2Bni	.	2F	.
2r	1C	1c	.	2G	2r
2c	.	.	.	2g	2g
=70	=70	=70	=70	=70	=70
2.d	0r	0r	0r	2.f	2.b-y
4c	.	.	.	4e	4a
2B-y	.	.	.	2d	2g
2A	.	.	.	2c	2f
=71	=71	=71	=71	=71	=71
2G	1r	1r	0r	2d	2g
2F	.	.	.	2f	2a
1c	2r	2r	.	2e	1g
.	2c	2e	.	2g	.
=72	=72	=72	=72	=72	=72
0r	2.d	2.f	0r	2.b-y	0r
.	4c	4e	.	4a	.
.	2B-y	2d	.	2g	.
.	2A	2c	.	2f	.
=73	=73	=73	=73	=73	=73
0r	2G	2d	0r	2g	0r
.	2F	2f	.	2a	.
.	1c	1e	.	1g	.
=74	=74	=74	=74	=74	=74
2r	2r	2r	0r	2r	2r
2C	2c	2e	.	2G	2g
2BB-y	2.d	2.f	.	2.d	2.b-y
2BB-y	.	.	.	.	.
.	4c	4f	.	4f	4a
=75	=75	=75	=75	=75	=75
2E-i	2B-y	2g	0r	2e-X	2g
2F	2A	2f	.	2c	2a
2C	2G	2f	.	2c	2cc
2C	2G	2e	.	2c	2cc
=76	=76	=76	=76	=76	=76
0F	1F	1f	0c	1c	1a
.	2r	1r	.	1F	1r
.	[2F	.	.	.	.
=77	=77	=77	=77	=77	=77
1r	2F]	0r	0c	1G	1r
.	2E	.	.	.	.
2r	1F	.	.	1A	1f
[2F	.	.	.	.	.
=78	=78	=78	=78	=78	=78
2F]	1C	1r	0c	2G	1g
2E	.	.	.	1c	.
1F	1r	2r	.	.	1a
.	.	[2c	.	2A	.
=79	=79	=79	=79	=79	=79
1C	0r	2c]	0e	1c	1f
.	.	2G	.	.	.
1r	.	1c	.	1A	1r
=80	=80	=80	=80	=80	=80
0r	2r	2.B-y	[0f	1r	0r
.	1B-y	.	.	.	.
.	.	8AL	.	.	.
.	.	8GJ	.	.	.
.	.	1F	.	2r	.
.	2A	.	.	2c	.
=81	=81	=81	=81	=81	=81
0r	1B-y	2r	0f]	1d	2r
.	.	2B-y	.	.	1b-y
.	1F	1c	.	1c	.
.	.	.	.	.	2a
=82	=82	=82	=82	=82	=82
1r	0r	1d	[0g	0G	1b-y
2.C	.	2e-i	.	.	1g
.	.	[2c	.	.	.
4D	.	.	.	.	.
=83	=83	=83	=83	=83	=83
2E	2.C	2c]	0g_	0r	0r
2F	.	4B-y	.	.	.
.	4D	4A	.	.	.
2G	2E	1G	.	.	.
2A	2F	.	.	.	.
=84	=84	=84	=84	=84	=84
1B-y	2G	1d	0g]	0r	0r
.	2A	.	.	.	.
1G	1B-y	2d	.	.	.
.	.	2e	.	.	.
=85	=85	=85	=85	=85	=85
0r	[0F	1f	0a	1r	2.f
.	.	.	.	.	4g
.	.	1r	.	2.F	2a
.	.	.	.	.	2b-y
.	.	.	.	4G	.
=86	=86	=86	=86	=86	=86
0r	0F]	2.F	0f	2A	2cc
.	.	.	.	2B-y	2dd
.	.	4G	.	.	.
.	.	2A	.	2c	1cc
.	.	2B-y	.	2d	.
=87	=87	=87	=87	=87	=87
0r	2E	2c	0g	1e	1cc
.	2D	2d	.	.	.
.	[1C	1e	.	1c	2.c
.	.	.	.	.	4d
=88	=88	=88	=88	=88	=88
2.C	1C]	1c	0e	0r	2e
.	.	.	.	.	2f
4D	.	.	.	.	.
2E	1r	1r	.	.	2g
2F	.	.	.	.	2a
=89	=89	=89	=89	=89	=89
2G	0r	0r	0r	1r	1b-y
2A	.	.	.	.	.
1B-y	.	.	.	1d	1f
=90	=90	=90	=90	=90	=90
1F	1r	1A	0c	1c	1r
1r	1F	1A	.	1f	1ff
=91	=91	=91	=91	=91	=91
1F	1D	1A	1d	4F	2ff
.	.	.	.	4G	.
.	.	.	.	4A	2ff
.	.	.	.	4B-y	.
1G	1C	2r	1e	2c	2ee
.	.	2c	.	2G	2ee
=92	=92	=92	=92	=92	=92
1.B-y	1.BB-y	2F	[0f	2.d	1dd
.	.	2.d	.	.	.
.	.	.	.	4e	.
.	.	.	.	2f	2b-y
.	.	4e	.	.	.
2B-y	2BB-y	2f	.	2B-y	[2dd
=93	=93	=93	=93	=93	=93
1B-y	1BB-y	2.F	0f]	1d	4dd]
.	.	.	.	.	4cc
.	.	.	.	.	1b-y
.	.	4G	.	.	.
1c	1F	1A	.	1c	.
.	.	.	.	.	2a
=94	=94	=94	=94	=94	=94
0B-y	0BB-y	0F	0f	0d	0b-y
=95	=95	=95	=95	=95	=95
0r	0r	2r	[0e	2r	0r
.	.	2c	.	2A	.
.	.	2.c	.	2.A	.
.	.	4B-y	.	4G	.
=96	=96	=96	=96	=96	=96
1r	0r	2c	0e_	2A	1r
.	.	2B-y	.	2G	.
2r	.	1A	.	1c	2r
2A	.	.	.	.	2cc
=97	=97	=97	=97	=97	=97
2.A	0r	0r	0e]	0r	2.cc
4G	.	.	.	.	4b-y
2A	.	.	.	.	2cc
2G	.	.	.	.	2b-y
=98	=98	=98	=98	=98	=98
1.c	0r	1.e	0r	1r	0g
.	.	.	.	1c	.
4B-y	.	4d	.	.	.
4A	.	4c	.	.	.
=99	=99	=99	=99	=99	=99
2B-y	0r	2d	0r	2G	1g
1c	.	2e	.	1c	.
.	.	2f	.	.	2a
2F	.	4B-y	.	2d	2f
.	.	4c	.	.	.
=100	=100	=100	=100	=100	=100
2B-y	0r	4d	0r	2G	2g
.	.	4e	.	.	.
2A	.	1f	.	1c	2a
1G	.	.	.	.	1b-y
.	.	2e	.	2B-y	.
=101	=101	=101	=101	=101	=101
1F	2.D	1f	[0f	1d	1a
.	4E	.	.	.	.
2.A	2F	2c	.	1c	1r
.	2F	[2f	.	.	.
4B-y	.	.	.	.	.
=102	=102	=102	=102	=102	=102
2c	2F	4f]	0f]	0r	2.a
.	.	4g	.	.	.
2c	2F	1a	.	.	.
.	.	.	.	.	4b-y
2c	1F	.	.	.	2cc
2c	.	4g	.	.	2cc
.	.	4f	.	.	.
=103	=103	=103	=103	=103	=103
1c	1C	1e	[0g	2.G	2cc
.	.	.	.	.	2cc
.	.	.	.	4A	.
[1G	1r	1r	.	2B-y	1dd
.	.	.	.	2B-y	.
=104	=104	=104	=104	=104	=104
1G]	0r	1r	0g]	2B-y	1b-y
.	.	.	.	2B-y	.
1r	.	2.d	.	1B-y	2r
.	.	.	.	.	[2dd
.	.	4e	.	.	.
=105	=105	=105	=105	=105	=105
2.D	1r	2f	[0a	0F	4dd]
.	.	.	.	.	4ee
.	.	2f	.	.	1ff
4E	.	.	.	.	.
2F	2.A	2f	.	.	.
2F	.	2f	.	.	4ee
.	4B-y	.	.	.	4dd
=106	=106	=106	=106	=106	=106
2F	2c	1f	0a]	1r	1cc
2F	2c	.	.	.	.
1F	2c	2c	.	2r	1r
.	2c	[2f	.	2F	.
=107	=107	=107	=107	=107	=107
1C	1c	2f]	[0g	2G	1cc
.	.	2e	.	1c	.
1r	[1G	1d	.	.	1dd
.	.	.	.	2Bni	.
=108	=108	=108	=108	=108	=108
1C	1G]	1e	0g]	1c	2g
.	.	.	.	.	1cc
1G	1G	[1d	.	1G	.
.	.	.	.	.	2b-y
=109	=109	=109	=109	=109	=109
1D	2A	1d]	0f	1r	2.a
.	2.F	.	.	.	.
.	.	.	.	.	4g
1F	.	2c	.	1c	4a
.	4G	.	.	.	4b-y
.	2A	[2f	.	.	[2cc
=110	=110	=110	=110	=110	=110
0G	0B-y	4f]	0d	1g	2cc]
.	.	4e	.	.	.
.	.	4d	.	.	4bni
.	.	4c	.	.	4a
.	.	1d	.	[1g	1bni
=111	=111	=111	=111	=111	=111
0C	1.G	0c	0e	0g]	0cc
.	2C	.	.	.	.
=112	=112	=112	=112	=112	=112
0r	[0D	1f	[0d	0r	2r
.	.	.	.	.	2a
.	.	2f	.	.	2b-y
.	.	2f	.	.	2a
=113	=113	=113	=113	=113	=113
0r	0D]	2d	0d]	0r	2f
.	.	1f	.	.	1a
.	.	4e	.	.	4g
.	.	4d	.	.	4f
=114	=114	=114	=114	=114	=114
0r	0r	2.e	[0c	0r	2.a
.	.	4f	.	.	4g
.	.	2g	.	.	2e
.	.	[2e	.	.	[2g
=115	=115	=115	=115	=115	=115
0r	0r	4e]	0c]	0r	4g]
.	.	4d	.	.	4f
.	.	4c	.	.	4e
.	.	4B-y	.	.	4d
.	.	1A	.	.	2e
.	.	.	.	.	[2f
=116	=116	=116	=116	=116	=116
0r	0r	0G	0B-y	0r	4f]
.	.	.	.	.	4e
.	.	.	.	.	4d
.	.	.	.	.	4c
.	.	.	.	.	1d
=117	=117	=117	=117	=117	=117
1.C	0r	0r	0c	2r	2e
.	.	.	.	1g	1e
2C	.	.	.	2g	2e
=118	=118	=118	=118	=118	=118
2F	0r	0r	[0cl	2a	2f
2E	.	.	.	2g	2g
1F	.	.	.	1f	1a
=119	=119	=119	=119	=119	=119
2C	2r	2r	0c_	2e	0g
1G	1C	1g	.	1e	.
2G	2C	2g	.	2e	.
=120	=120	=120	=120	=120	=120
2F	2F	2a	0c_	2f	2r
2C	2E	2g	.	2g	2cc
1A	1F	1f	.	1c	2.a
.	.	.	.	.	4b-y
=	=	=	=	=	=
00G	00C	00e	00c]	00g	00cc
=||	=||	=||	=||	=||	=||
*M2/1	*M2/1	*M2/1	*M2/1	*M2/1	*M2/1
*met(C|)	*met(C|)	*met(C|)	*met(C|)	*met(C|)	*met(C|)
!!section: Secunda pars: Quae est ista
!!!OMD: Secunda pars: Quae est ista
0r	0r	0r	0c	1r	1g
.	.	.	.	1g	2g
.	.	.	.	.	2g
=121	=121	=121	=121	=121	=121
0r	0r	1g	1c	2g	2e
.	.	.	.	2g	2.g
.	.	2g	1c	2e	.
.	.	.	.	.	4f
.	.	2g	.	[2g	4e
.	.	.	.	.	4d
=122	=122	=122	=122	=122	=122
1r	1c	2e	[0e	4g]	1c
.	.	.	.	4f	.
.	.	2.g	.	4e	.
.	.	.	.	4d	.
1c	2c	.	.	1c	1r
.	.	4f	.	.	.
.	2c	4e	.	.	.
.	.	4d	.	.	.
=123	=123	=123	=123	=123	=123
2c	2A	1c	0e]	0r	1cc
2c	2.c	.	.	.	.
2A	.	1r	.	.	2cc
.	4B-y	.	.	.	.
[2c	4A	.	.	.	2cc
.	4G	.	.	.	.
=124	=124	=124	=124	=124	=124
4c]	1F	1r	0f	1c	2a
4B-y	.	.	.	.	.
4A	.	.	.	.	2.cc
4G	.	.	.	.	.
1F	1r	1c	.	2c	.
.	.	.	.	.	4dd
.	.	.	.	2c	[2ff
=125	=125	=125	=125	=125	=125
1r	0C	2c	0g	2G	2ff]
.	.	2c	.	2.c	4ee
.	.	.	.	.	4dd
1c	.	2G	.	.	1ee
.	.	.	.	4B-y	.
.	.	[2c	.	4A	.
.	.	.	.	4G	.
=126	=126	=126	=126	=126	=126
2c	0F	4c]	0a	2c	0r
.	.	4B-y	.	.	.
2c	.	4A	.	2c	.
.	.	4G	.	.	.
2A	.	1F	.	2c	.
[2c	.	.	.	2c	.
=127	=127	=127	=127	=127	=127
4c]	1F	2r	0f	2d	0r
4B-y	.	.	.	.	.
4A	.	1A	.	1f	.
4G	.	.	.	.	.
1F	1D	.	.	.	.
.	.	2F	.	4e	.
.	.	.	.	4d	.
=128	=128	=128	=128	=128	=128
1r	0C	1c	0g	1e	2r
.	.	.	.	.	2e
1E	.	1r	.	1r	1c
=129	=129	=129	=129	=129	=129
1C	1E	1r	0e	0r	[0g
1G	1C	1c	.	.	.
=130	=130	=130	=130	=130	=130
1r	1G	1d	0r	0r	0g]
1E	1r	2G	.	.	.
.	.	[2g	.	.	.
=131	=131	=131	=131	=131	=131
1C	1E	4g]	0c	0r	2r
.	.	4f	.	.	.
.	.	2.e	.	.	1g
1G	1C	.	.	.	.
.	.	4d	.	.	.
.	.	[2c	.	.	2e
=132	=132	=132	=132	=132	=132
0r	1G	2c]	1d	1r	1d
.	.	2Bni	.	.	.
.	1r	[1c	1e	1A	1c
=133	=133	=133	=133	=133	=133
1A	1F	1c]	0f	1F	2r
.	.	.	.	.	2cc
2A	2F	2r	.	2c	2cc
2A	2F	2f	.	2c	2cc
=134	=134	=134	=134	=134	=134
1A	1F	2a	0f	2c	2a
.	.	2a	.	2c	2f
1F	1F	2a	.	2A	[1cc
.	.	2a	.	2F	.
=135	=135	=135	=135	=135	=135
0G	[0C	0g	[0e	0c	1cc]
.	.	.	.	.	2r
.	.	.	.	.	2g
=136	=136	=136	=136	=136	=136
0r	0C]	0r	0e]	2r	2a
.	.	.	.	2G	2g
.	.	.	.	2A	1cc
.	.	.	.	2G	.
=137	=137	=137	=137	=137	=137
0r	0r	2r	0r	2c	2g
.	.	2G	.	2G	2b-y
.	.	2A	.	2r	2cc
.	.	2G	.	2d	[2dd
=138	=138	=138	=138	=138	=138
0r	0r	1c	0r	2e	4dd]
.	.	.	.	.	4cc
.	.	.	.	2c	1cc
.	.	1G	.	1d	.
.	.	.	.	.	2bni
=139	=139	=139	=139	=139	=139
0r	0r	2r	0r	2c	1cc
.	.	1c	.	1e	.
.	.	.	.	.	2.g
.	.	2c	.	2e	.
.	.	.	.	.	4g
=140	=140	=140	=140	=140	=140
0r	0r	2.A	0r	2e	2a
.	.	.	.	2e	2a
.	.	4B-y	.	.	.
.	.	1c	.	1e	1g
=141	=141	=141	=141	=141	=141
0r	0r	1d	0r	1f	1b-y
.	.	2c	.	2e	2a
.	.	2B-y	.	[2d	[2g
=142	=142	=142	=142	=142	=142
0r	0r	2A	0r	4d]	4g]
.	.	.	.	4c	4f
.	.	4G	.	1c	1f
.	.	4F	.	.	.
.	.	1G	.	.	.
.	.	.	.	2B-y	2e
=143	=143	=143	=143	=143	=143
0r	0r	0F	0r	2c	1f
.	.	.	.	2f	.
.	.	.	.	2f	2r
.	.	.	.	2f	2cc
=144	=144	=144	=144	=144	=144
1F	0r	1r	0f	2c	2cc
.	.	.	.	2c	2cc
2F	.	2r	.	1f	2a
2F	.	2c	.	.	[2cc
=145	=145	=145	=145	=145	=145
2C	0r	2c	0g	1e	4cc]
.	.	.	.	.	4dd
2C	.	2c	.	.	2.ee
1E	.	4G	.	1r	.
.	.	4A	.	.	4ff
.	.	4B-y	.	.	4gg
.	.	4c	.	.	4ee
=146	=146	=146	=146	=146	=146
1D	1F	4d	0a	1r	2.ff
.	.	4e	.	.	.
.	.	1f	.	.	.
.	.	.	.	.	8eeL
.	.	.	.	.	8ddJ
1r	2F	.	.	2r	[1cc
.	2F	4e	.	2A	.
.	.	4d	.	.	.
=147	=147	=147	=147	=147	=147
1r	2C	2e	0g	2c	1cc]
.	2C	2e	.	2c	.
1C	1E	4e	.	2c	2r
.	.	4f	.	.	.
.	.	4g	.	2c	2g
.	.	4e	.	.	.
=148	=148	=148	=148	=148	=148
2.F	1D	1f	0f	2d	2.a
.	.	.	.	2d	.
4F	.	.	.	.	4a
2F	1r	1c	.	1f	4a
.	.	.	.	.	4b-y
2F	.	.	.	.	4cc
.	.	.	.	.	4a
=149	=149	=149	=149	=149	=149
2G	0r	1r	0d	0r	2b-y
2F	.	.	.	.	2a
1B-y	.	2r	.	.	2a
.	.	2G	.	.	2g
=150	=150	=150	=150	=150	=150
0r	1r	2.c	0e	1A	1a
.	.	4c	.	.	.
.	1C	2c	.	2G	1r
.	.	2c	.	2G	.
=151	=151	=151	=151	=151	=151
0r	2.F	2d	0f	2A	0r
.	.	2c	.	4a	.
.	4F	.	.	4g	.
.	2F	1f	.	4a	.
.	.	.	.	4b-y	.
.	2F	.	.	4cc	.
.	.	.	.	4a	.
=152	=152	=152	=152	=152	=152
0r	2G	2r	0d	2b-y	0r
.	2F	1f	.	1a	.
.	1B-y	.	.	.	.
.	.	4e	.	2g	.
.	.	4d	.	.	.
=153	=153	=153	=153	=153	=153
2.A	0r	2f	0c	1a	0r
.	.	1e	.	.	.
4B-y	.	.	.	.	.
2c	.	.	.	2g	.
2F	.	[2f	.	2a	.
=154	=154	=154	=154	=154	=154
1G	0r	4f]	0B-y	2d	0r
.	.	4e	.	.	.
.	.	4d	.	2.g	.
.	.	4c	.	.	.
1G	.	1d	.	.	.
.	.	.	.	4f	.
.	.	.	.	4e	.
.	.	.	.	4d	.
=155	=155	=155	=155	=155	=155
1C	2r	2c	0c	1e	2r
.	2C	2e	.	.	2cc
1r	2F	2f	.	1r	2.cc
.	2F	2f	.	.	.
.	.	.	.	.	4b-y
=156	=156	=156	=156	=156	=156
2r	2F	2f	[0c	2r	2a
2C	2G	2e	.	2cc	2g
2F	1A	2f	.	2.cc	4f
.	.	.	.	.	4g
2F	.	2c	.	.	4a
.	.	.	.	4b-y	4b-y
=157	=157	=157	=157	=157	=157
2F	2r	2f	0c]	2a	2cc
2G	2C	2e	.	2g	2cc
1A	2F	2.f	.	4f	2.cc
.	.	.	.	4g	.
.	2F	.	.	4a	.
.	.	8eL	.	4b-y	4b-y
.	.	8dJ	.	.	.
=158	=158	=158	=158	=158	=158
2r	2F	4c	1c	2cc	2a
.	.	2f	.	.	.
2C	2G	.	.	2cc	2g
.	.	4e	.	.	.
2F	1A	2f	2c	2cc	4f
.	.	.	.	.	4g
2F	.	[2c	2c	2a	4a
.	.	.	.	.	4b-y
=159	=159	=159	=159	=159	=159
1C	0r	2c]	0e	1g	0cc
.	.	4B-y	.	.	.
.	.	4A	.	.	.
1C	.	1G	.	1g	.
=160	=160	=160	=160	=160	=160
1F	1r	2r	1f	1a	1r
.	.	1c	.	.	.
2r	1C	.	1g	1cc	1ee
[2c	.	2c	.	.	.
=161	=161	=161	=161	=161	=161
2c]	1F	1A	1a	1cc	1ff
2c	.	.	.	.	.
1A	1F	[1c	1f	[1cc	2ff
.	.	.	.	.	2ff
=162	=162	=162	=162	=162	=162
1G	1C	1c]	1g	2cc]	2.ee
.	.	.	.	2cc	.
.	.	.	.	.	4dd
1G	1C	1c	1e	1g	4cc
.	.	.	.	.	4b-y
.	.	.	.	.	[2cc
=163	=163	=163	=163	=163	=163
1B-y	1G	1d	1r	1.g	2cc]
.	.	.	.	.	2b-y
[1G	1C	1e	1c	.	2.cc
.	.	.	.	2g	.
.	.	.	.	.	8b-yL
.	.	.	.	.	8aJ
=164	=164	=164	=164	=164	=164
1G]	2r	0r	2d	1g	2b-y
.	2C	.	2e	.	2.cc
1r	1F	.	1f	[1a	.
.	.	.	.	.	4b-y
.	.	.	.	.	4a
.	.	.	.	.	4g
=165	=165	=165	=165	=165	=165
2r	1D	0r	1f	2a]	1f
2A	.	.	.	4g	.
.	.	.	.	4f	.
1c	1C	.	[1e	2a	1r
.	.	.	.	[2g	.
=166	=166	=166	=166	=166	=166
1A	0r	2r	0e]	2g]	1cc
.	.	2e	.	2c	.
1G	.	1g	.	1d	2b-y
.	.	.	.	.	[2dd
=167	=167	=167	=167	=167	=167
0r	0r	1e	0r	0G	4dd]
.	.	.	.	.	4cc
.	.	.	.	.	1cc
.	.	1d	.	.	.
.	.	.	.	.	2b-y
=168	=168	=168	=168	=168	=168
0r	1C	2r	0r	2c	2a
.	.	1G	.	2e	2g
.	[1D	.	.	2d	2b-y
.	.	4F	.	[2c	[2a
.	.	4E	.	.	.
=169	=169	=169	=169	=169	=169
0r	1D]	1F	0r	2c]	2a]
.	.	.	.	2B-y	4g
.	.	.	.	.	4f
.	2C	1G	.	2.c	2e
.	2E	.	.	.	[2g
.	.	.	.	8B-yL	.
.	.	.	.	8cJ	.
=170	=170	=170	=170	=170	=170
0r	1D	2A	1f	2d	4g]
.	.	.	.	.	4f
.	.	2B-y	.	2B-y	1f
.	1C	1G	1g	1c	.
.	.	.	.	.	2e
=171	=171	=171	=171	=171	=171
2r	1F	2F	1a	2c	2f
2F	.	2c	.	2a	2ff
2G	1r	2B-y	1g	2b-y	2ee
2G	.	2B-y	.	2b-y	[2dd
=172	=172	=172	=172	=172	=172
2B-y	1r	2d	1f	2b-y	4dd]
.	.	.	.	.	4cc
2F	.	2A	.	2a	1cc
1G	2r	1d	1d	1g	.
.	2G	.	.	.	2bni
=173	=173	=173	=173	=173	=173
1C	2G	1c	1e	2g	4cc
.	.	.	.	.	4dd
.	2G	.	.	2cc	4ee
.	.	.	.	.	4cc
2r	2B-y	2r	1f	2b-y	2dd
2F	2F	2A	.	2a	[2cc
=174	=174	=174	=174	=174	=174
2B-y	1G	2d	1d	2g	2cc]
2B-y	.	2d	.	2g	2bni
2G	2C	2e	1c	1g	1cc
2C	2G	2e	.	.	.
=175	=175	=175	=175	=175	=175
1G	1B-y	1d	1B-y	[0g	1dd
[1C	[1G	2c	1c	.	1ee
.	.	2G	.	.	.
=176	=176	=176	=176	=176	=176
1C]	1G]	1c	[0cl	1g]	1cc
1r	1r	4B-y	.	2r	[1cc
.	.	4A	.	.	.
.	.	4G	.	2c	.
.	.	[4F	.	.	.
=177	=177	=177	=177	=177	=177
0r	0r	2F]	0c_	2f	1cc]
.	.	2C	.	2e	.
.	.	2F	.	2f	2r
.	.	2E	.	2g	2c
=178	=178	=178	=178	=178	=178
0r	2r	2F	0c_	2a	2f
.	2C	2G	.	2g	2e
.	2F	2A	.	2f	2f
.	2E	4r	.	2cc	2g
.	.	4c	.	.	.
=179	=179	=179	=179	=179	=179
2r	2F	2f	0c_	2a	2a
2C	2G	2e	.	1cc	2g
2F	2.A	2f	.	.	2f
2E	.	2g	.	[2c	[2cc
.	4G	.	.	.	.
=180	=180	=180	=180	=180	=180
2F	2F	2a	0c_	4c]	2cc]
.	.	.	.	4d	.
2G	2E	2.g	.	2e	2cc
1A	1F	.	.	2c	1cc
.	.	4f	.	.	.
.	.	[2f	.	2f	.
=181	=181	=181	=181	=181	=181
1G	1C	2f]	0c_	1g	0cc
.	.	2e	.	.	.
[1F	1r	2.f	.	[1a	.
.	.	8eL	.	.	.
.	.	8dJ	.	.	.
=182	=182	=182	=182	=182	=182
1F]	0r	4c	0c_	1a]	2r
.	.	4B-y	.	.	.
.	.	4A	.	.	2c
.	.	4G	.	.	.
1r	.	2F	.	1r	2f
.	.	2C	.	.	2e
=183	=183	=183	=183	=183	=183
1r	0r	2F	0c_	0r	2f
.	.	2E	.	.	2g
2r	.	2F	.	.	2a
2C	.	2G	.	.	2g
=184	=184	=184	=184	=184	=184
2.F	1r	2A	0c_	2r	2f
.	.	2G	.	2c	1cc
4E	.	.	.	.	.
2F	2r	2F	.	2f	.
2G	2C	2r	.	2e	2cc
=185	=185	=185	=185	=185	=185
2.A	2.F	0r	0c_	2f	1cc
.	.	.	.	2g	.
4G	4E	.	.	.	.
2F	2F	.	.	2a	[1ccl
2E	2G	.	.	[2g	.
=186	=186	=186	=186	=186	=186
1F	1A	1r	0c_	4g]	0cc_
.	.	.	.	4f	.
.	.	.	.	1f	.
1C	1G	2r	.	.	.
.	.	2G	.	2e	.
=187	=187	=187	=187	=187	=187
[0Fl	[0Fl	2A	0c_	[0fl	0cc_
.	.	2.c	.	.	.
.	.	4B-y	.	.	.
.	.	4A	.	.	.
.	.	4G	.	.	.
=188	=188	=188	=188	=188	=188
00F]	00F]	00Al	00c]	00f]	00cc]
==	==	==	==	==	==
*-	*-	*-	*-	*-	*-
!!!system-decoration: [*]
!!!RDF**kern: i = editorial accidental
!!!RDF**kern: l = terminal long
!!!ENC: Benjamin Ory
!!!END: 2021/1/20
!!!EED: Benjamin Ory
!!!EEV: 2021/04/23
!!!YEC: Copyright 2021 Benjamin Ory, All Rights Reserved
!!!ONB: Translated from MusicXML on 2021/04/23
